tools/download-figma-icons/icons/outlined-large/pin.svg

<svg width="64" height="64" viewBox="0 0 64 64" fill="none" xmlns="http://www.w3.org/2000/svg">
<path fill-rule="evenodd" clip-rule="evenodd" d="M31.4189 61C31.5629 61 31.8329 60.961 32.0459 60.701C36.9239 54.735 52.8388 34.4901 52.8388 24.4191C52.8388 12.6091 43.2309 3.00017 31.4199 3.00017C19.6089 3.00017 9.99997 12.6091 9.99997 24.4191C9.99997 34.4861 25.9149 54.734 30.7929 60.701C31.0059 60.961 31.2759 61 31.4189 61ZM6.99998 24.4191C6.99998 10.9542 17.9549 0.000183105 31.4199 0.000183105C44.8849 0.000183105 55.8388 10.9542 55.8388 24.4191C55.8388 35.1811 40.8239 54.705 34.3679 62.599C33.6419 63.489 32.5669 64 31.4189 64C30.2729 64 29.1969 63.489 28.4709 62.599C22.0149 54.704 6.99998 35.1781 6.99998 24.4191ZM22.6069 24.4193C22.6069 29.2783 26.5609 33.2313 31.4199 33.2313C36.2789 33.2313 40.2329 29.2783 40.2329 24.4193C40.2329 19.5603 36.2789 15.6063 31.4199 15.6063C26.5609 15.6063 22.6069 19.5603 22.6069 24.4193ZM19.6069 24.4193C19.6069 17.9053 24.9059 12.6063 31.4199 12.6063C37.9339 12.6063 43.2329 17.9053 43.2329 24.4193C43.2329 30.9323 37.9339 36.2313 31.4199 36.2313C24.9059 36.2313 19.6069 30.9323 19.6069 24.4193Z" fill="black"/>
</svg>

<svg width="64" height="64" viewBox="0 0 64 64" fill="none" xmlns="http://www.w3.org/2000/svg"><path fill-rule="evenodd" clip-rule="evenodd" d="M31.419 61a.798.798 0 0 0 .627-.299c4.878-5.966 20.793-26.21 20.793-36.282C52.839 12.61 43.23 3 31.419 3 19.61 3 10 12.61 10 24.42c0 10.065 15.915 30.313 20.793 36.28.213.26.483.299.626.299ZM7 24.42C7 10.953 17.955 0 31.42 0c13.465 0 24.419 10.954 24.419 24.42 0 10.761-15.015 30.285-21.471 38.179A3.792 3.792 0 0 1 31.418 64a3.793 3.793 0 0 1-2.947-1.401C22.015 54.704 7 35.179 7 24.419Zm15.607 0c0 4.858 3.954 8.811 8.813 8.811s8.813-3.953 8.813-8.812-3.954-8.813-8.813-8.813c-4.86 0-8.813 3.954-8.813 8.813Zm-3 0c0-6.515 5.299-11.814 11.813-11.814s11.813 5.3 11.813 11.813c0 6.513-5.3 11.812-11.813 11.812-6.514 0-11.813-5.299-11.813-11.812Z" fill="currentColor"/></svg>
